X: 302
T: A Nobleman's Wedding
R: reel
M: 4/4
K: Amixolydian
A4c2d2|e4f2a2|a4g2f2|e4A2>A|
A4c3d|e4f3a|a4g2f2|e6zc/d/|
e4f3c|d4e2ec|A4c2ed|dBBAA4|
a4^g2a2|edd2e3d|B4A3A|A6z2|

